symbols/web/find_in_page/materialsymbolssharp/find_in_page_wght600gradN25fill1_24px.svg

<svg xmlns="http://www.w3.org/2000/svg" height="24" width="24"><path d="M3.75 22.225V1.775H15.1L20.25 7.9v11.825l-4.7-4.675q.275-.425.413-.913.137-.487.137-1.162 0-1.725-1.187-2.913Q13.725 8.875 12 8.875q-1.725 0-2.912 1.187Q7.9 11.25 7.9 12.975q0 1.75 1.188 2.938Q10.275 17.1 12 17.1q.65 0 1.15-.138.5-.137.925-.412l5.675 5.675ZM12 14.8q-.75 0-1.275-.538Q10.2 13.725 10.2 13q0-.75.525-1.288.525-.537 1.275-.537.75 0 1.275.537.525.538.525 1.263 0 .75-.525 1.287-.525.538-1.275.538Z"/></svg>

<svg xmlns="http://www.w3.org/2000/svg" height="24" width="24"><path d="M3.75 22.225V1.775H15.1L20.25 7.9V19.725L15.55 15.05Q15.825 14.625 15.963 14.137Q16.1 13.65 16.1 12.975Q16.1 11.25 14.913 10.062Q13.725 8.875 12 8.875Q10.275 8.875 9.088 10.062Q7.9 11.25 7.9 12.975Q7.9 14.725 9.088 15.913Q10.275 17.1 12 17.1Q12.65 17.1 13.15 16.962Q13.65 16.825 14.075 16.55L19.75 22.225ZM12 14.8Q11.25 14.8 10.725 14.262Q10.2 13.725 10.2 13Q10.2 12.25 10.725 11.712Q11.25 11.175 12 11.175Q12.75 11.175 13.275 11.712Q13.8 12.25 13.8 12.975Q13.8 13.725 13.275 14.262Q12.75 14.8 12 14.8Z"/></svg>
